X: 1
T: Wrath of Sandy
C: music: Jonathan Jensen (Oct. 29 2012)
C: dance: Sharon Green (Dec. 2012)
P: Four Couple Longways set, 4xAABB
R: reel
Z: 2017 John Chambers <jc:trillian.mit.edu>
M: C|
L: 1/8
K: Dm
|:\
"Dm"DEFG EFDE | F2EF DEFG | "Bb7"_AGFE Fz AG | FEFz _AGFE |
"Dm"DEFG EFDE | F2EF DEFG | "Bdim"_AGFE FA=Bd | "A7"fed^c "Dm"d4 :|
|:\
"Em"^gaga A2ga | A2^ga =gfed | "A7"^dede E2de | E2^de =d^c=BA |
"Em"^gaga A2ga | A2^ga =gfed |[1 "Gm"BAG^F GABd | "A7"fed^c "Dm"d4 :|
|[2 "A7"e2"n.c."de ^c2Be | A2GA FAEA :|\
"Optional ending:"y\
"Dm"D2z2 "A"A2z2 | "Dm"d8 |]
